src/images/networks/metis.svg

<svg width="32" height="32" viewBox="0 0 32 32" fill="none" xmlns="http://www.w3.org/2000/svg">
    <path d="M16 1C7.71573 1 1 7.71573 1 16C1 22.2262 4.79336 27.5663 10.195 29.8354C10.0214 30.1516 9.83702 30.4435 9.64488 30.6879C11.5932 31.5322 13.7425 32.0002 16.0012 32.0002C18 32 19.6432 31.6565 21.182 31.1327C20.9247 31.2203 20.6456 31.1382 20.4759 30.9356C20.2955 30.7237 20.1671 30.5451 20.1183 30.4276C26.4002 28.6379 31 22.8561 31 16C31 7.71573 24.2843 1 16 1Z" fill="#000000" class="fg"/>
    <path d="M31.9965 15.6697C31.8159 6.75883 24.3828 -0.302037 15.4445 0.00995468C6.71423 0.310999 -0.182421 7.6127 0.00367934 16.3485C0.145991 22.8018 4.08694 28.2753 9.64258 30.6891C10.4308 29.6875 11.0876 27.8867 11.416 26.885C11.7444 26.064 12.0892 25.2649 12.4505 24.4876C14.0761 25.0514 16.2546 24.515 17.4478 23.2178L17.4971 23.1685H17.4916C16.0466 22.5336 14.0542 22.862 12.7406 23.88C13.1894 22.955 13.6602 22.0574 14.1582 21.1925C15.7565 21.8329 17.9569 21.3951 19.2048 20.158L19.2541 20.1088H19.2486C17.8584 19.4191 15.8934 19.6381 14.5359 20.5521C15.0285 19.7311 15.5431 18.9374 16.0795 18.1821C17.7325 18.6966 19.9109 18.0617 21.0549 16.7042L21.0987 16.6495H21.0932C19.7467 16.1295 17.9733 16.436 16.7144 17.3173C16.7582 17.2571 16.802 17.1969 16.8458 17.1367C17.1687 16.7152 17.4971 16.3101 17.831 15.9106C19.785 15.3578 21.5256 13.3654 21.8048 11.3073L21.8157 11.2252H21.8102C19.7905 11.6303 17.9186 13.6172 17.5464 15.719C17.2234 16.1022 16.9114 16.4908 16.5994 16.8958C17.103 15.5274 17.0154 13.8635 16.2765 12.714V12.6976L16.2327 12.7523C15.1216 14.159 14.941 16.447 15.8058 17.9632C15.2967 18.6802 14.8096 19.4301 14.3389 20.2018C14.6344 18.6473 14.1364 16.8411 13.0416 15.823L13.0362 15.8175L13.0088 15.8832C12.2863 17.5034 12.6749 19.7421 13.8627 21.0064C13.392 21.822 12.9486 22.6649 12.5217 23.5407C12.7789 21.926 12.2042 20.054 11.0438 19.0414L11.0383 19.036L11.011 19.1017C10.3541 20.8039 10.8577 23.1083 12.1385 24.3398C11.8594 24.9364 11.5912 25.5495 11.3339 26.168C11.2737 26.1023 11.1916 26.053 11.0985 26.0257C10.7647 25.9272 10.3049 25.752 9.79584 25.451C9.46195 25.2484 9.10617 25.0842 8.73397 24.9638C7.28896 24.4931 7.50242 23.7925 6.74708 22.4022C6.69782 22.3091 6.1012 21.6906 5.97531 21.5757C5.94247 21.5483 5.56479 21.3294 5.36775 20.9189C5.19259 20.5467 5.0886 20.1964 5.05575 19.857C5.00649 19.4027 4.82039 19.1071 4.37704 18.9539C2.26425 18.2259 3.21117 15.4727 3.2878 15.106C3.34801 14.794 3.07981 14.1098 2.97581 13.7376C2.96486 13.6938 2.95392 13.6391 2.94297 13.5679C2.78971 12.829 3.13454 12.205 3.38633 11.9477C3.64358 11.6905 4.52482 11.28 4.71092 11.0391C4.89155 10.8038 5.03933 10.5301 5.22543 10.3002C5.47174 9.99369 6.23256 9.38612 7.25064 8.83877C7.86915 8.51036 7.97862 7.64554 8.21399 7.37733C8.61903 6.92303 9.22659 6.92303 9.68089 6.51252C9.91078 6.30452 10.2392 6.20052 10.4527 5.98706C11.5036 4.90877 12.9158 4.47089 14.3115 4.21363C15.253 4.03848 16.2984 4.30668 17.2782 4.47636C17.4205 4.49826 17.5573 4.53657 17.6942 4.57489C19.9 4.65151 22.5547 5.11129 23.5125 6.04179C24.1091 6.62746 24.4047 7.26239 24.547 7.70028C24.7058 8.19289 24.9247 8.65814 25.1984 9.09603L25.7895 10.0539C26.1617 10.6615 26.2876 11.3894 26.1234 12.0846C26.0303 12.4787 25.9866 12.8947 26.1015 13.1245C26.2876 13.4858 26.8514 14.0715 27.1907 14.4054C27.3549 14.5696 27.5356 14.7119 27.7326 14.8323C28.1869 15.1169 29.0463 15.6697 29.0463 15.719C29.0463 15.7847 29.1174 16.0584 28.7343 16.3868C28.3511 16.7152 27.6396 17.2406 27.6396 17.2406C27.6396 17.2406 27.6779 17.4815 27.7764 17.6731C27.8749 17.8646 28.1267 18.1493 28.0501 18.412C27.9735 18.6747 27.448 18.8772 27.5958 19.1619C27.749 19.452 28.1212 19.5395 28.0118 19.8023C27.9023 20.065 27.3823 20.5084 27.4316 20.7054C27.4863 20.897 27.9078 22.6813 26.928 22.9933C26.1891 23.2287 24.1639 23.3601 23.2115 23.4093C22.801 23.4312 22.4288 23.6611 22.2317 24.0224C22.0839 24.2906 21.9361 24.6682 21.865 25.1609C21.6789 26.4252 20.4309 29.3262 20.4309 29.3262C20.4309 29.3262 20.3926 29.3974 20.3379 29.5233C20.2284 29.786 20.0751 30.1965 20.097 30.3607C20.1135 30.4702 20.2558 30.6782 20.4747 30.9354C20.6444 31.138 20.9235 31.2201 21.1808 31.1325C27.5903 28.954 32.1443 22.8072 31.9965 15.6697Z" fill="#00CFFF" class="bg"/>
</svg>

<svg xmlns="http://www.w3.org/2000/svg" width="32" height="32" fill="none"><path fill="#000" d="M16 1C7.716 1 1 7.716 1 16c0 6.226 3.793 11.566 9.195 13.835a6.3 6.3 0 0 1-.55.853A15.95 15.95 0 0 0 16 32c1.999 0 3.642-.343 5.181-.867a.65.65 0 0 1-.706-.197c-.18-.212-.309-.39-.358-.508C26.4 28.638 31 22.856 31 16c0-8.284-6.716-15-15-15" class="fg"/><path fill="#00CFFF" d="M31.997 15.67C31.816 6.759 24.383-.302 15.445.01 6.715.311-.182 7.613.004 16.349c.142 6.453 4.083 11.926 9.639 14.34.788-1.001 1.445-2.802 1.773-3.804q.492-1.232 1.034-2.397c1.626.563 3.805.027 4.998-1.27l.05-.05h-.006c-1.445-.634-3.438-.306-4.751.712q.672-1.39 1.417-2.687c1.599.64 3.799.202 5.047-1.035l.05-.05h-.006c-1.39-.689-3.356-.47-4.713.444a37 37 0 0 1 1.543-2.37c1.654.515 3.832-.12 4.976-1.478l.044-.055h-.006c-1.346-.52-3.12-.213-4.379.668l.132-.18c.323-.422.651-.827.985-1.226 1.954-.553 3.695-2.546 3.974-4.604l.01-.082h-.005c-2.02.405-3.891 2.392-4.264 4.494-.323.383-.635.772-.947 1.177.504-1.369.416-3.033-.323-4.182v-.016l-.043.054c-1.111 1.407-1.292 3.695-.427 5.211a39 39 0 0 0-1.467 2.239c.295-1.555-.203-3.36-1.297-4.379l-.006-.005-.027.065c-.723 1.62-.334 3.86.854 5.123a41 41 0 0 0-1.341 2.535c.257-1.615-.318-3.487-1.478-4.5l-.006-.005-.027.066c-.657 1.702-.153 4.006 1.128 5.238-.28.596-.548 1.21-.805 1.828a.5.5 0 0 0-.236-.142 5.8 5.8 0 0 1-1.302-.575 5 5 0 0 0-1.062-.487c-1.445-.47-1.232-1.171-1.987-2.562-.05-.093-.646-.711-.772-.826-.033-.028-.41-.247-.607-.657a3.2 3.2 0 0 1-.312-1.062c-.05-.454-.236-.75-.679-.903-2.113-.728-1.166-3.481-1.09-3.848.061-.312-.207-.996-.311-1.368a2 2 0 0 1-.033-.17 1.87 1.87 0 0 1 .443-1.62c.258-.258 1.139-.668 1.325-.909.18-.235.328-.509.514-.739.247-.306 1.008-.914 2.026-1.461.618-.329.728-1.193.963-1.462.405-.454 1.013-.454 1.467-.864.23-.208.558-.312.772-.526 1.05-1.078 2.463-1.516 3.859-1.773.941-.176 1.986.093 2.966.262.143.022.28.06.416.099 2.206.077 4.86.536 5.819 1.467.596.585.892 1.22 1.034 1.658q.24.74.651 1.396l.591.958a2.7 2.7 0 0 1 .334 2.03c-.093.395-.136.81-.021 1.04.186.362.75.947 1.089 1.281q.246.247.542.427c.454.285 1.313.838 1.313.887 0 .066.071.34-.312.668s-1.094.854-1.094.854.038.24.136.432c.099.192.35.476.274.739s-.602.465-.454.75c.153.29.525.378.416.64-.11.263-.63.706-.58.903.054.192.476 1.976-.504 2.288-.739.236-2.764.367-3.716.416-.411.022-.783.252-.98.613a3.3 3.3 0 0 0-.367 1.139c-.186 1.264-1.434 4.165-1.434 4.165s-.038.071-.093.197c-.11.263-.263.674-.241.838.016.11.159.317.378.574.17.203.448.285.706.198 6.41-2.179 10.963-8.326 10.816-15.463" class="bg"/></svg>
